packages/tokens/icons/computer/size24Px.svg

<svg viewBox="0 0 24 24" fill="none" xmlns="http://www.w3.org/2000/svg" width="1em" height="1em"><path d="M4.50001 4.49978L19.5 4.49987C20.6046 4.49987 21.5 5.3953 21.5 6.49986V14.5C21.5 15.6046 20.6046 16.5 19.5 16.5L4.49999 16.4999C3.39542 16.4999 2.5 15.6045 2.5 14.4999L2.5 6.49978C2.5 5.3952 3.39544 4.49977 4.50001 4.49978Z" stroke="currentColor" stroke-linecap="round"/><path d="M12 16.5L12 20.0183" stroke="currentColor"/><path d="M7.5 20.5H16.5" stroke="currentColor" stroke-linecap="round"/></svg>

<svg xmlns="http://www.w3.org/2000/svg" fill="none" viewBox="0 0 24 24" width="1em" height="1em"><path stroke="currentColor" stroke-linecap="round" d="M4.5 4.5h15a2 2 0 0 1 2 2v8a2 2 0 0 1-2 2h-15a2 2 0 0 1-2-2v-8a2 2 0 0 1 2-2Z"/><path stroke="currentColor" d="M12 16.5v3.518"/><path stroke="currentColor" stroke-linecap="round" d="M7.5 20.5h9"/></svg>
